src/assets/svg/logo.svg

<svg height="42" viewBox="0 0 169 42" fill="none" xmlns="http://www.w3.org/2000/svg">
  <path d="M66.608 15.652V18.94H62.144V32.5H58.04V18.94H53.576V15.652H66.608Z" fill="#233348" />
  <path
    d="M72.7717 21.34C73.2517 20.604 73.8517 20.028 74.5717 19.612C75.2917 19.18 76.0917 18.964 76.9717 18.964V23.308H75.8437C74.8197 23.308 74.0517 23.532 73.5397 23.98C73.0277 24.412 72.7717 25.18 72.7717 26.284V32.5H68.6677V19.108H72.7717V21.34Z"
    fill="#233348" />
  <path
    d="M78.1173 25.78C78.1173 24.404 78.3733 23.196 78.8853 22.156C79.4133 21.116 80.1253 20.316 81.0213 19.756C81.9173 19.196 82.9173 18.916 84.0213 18.916C84.9653 18.916 85.7893 19.108 86.4933 19.492C87.2133 19.876 87.7653 20.38 88.1493 21.004V19.108H92.2533V32.5H88.1493V30.604C87.7493 31.228 87.1893 31.732 86.4693 32.116C85.7653 32.5 84.9413 32.692 83.9973 32.692C82.9093 32.692 81.9173 32.412 81.0213 31.852C80.1253 31.276 79.4133 30.468 78.8853 29.428C78.3733 28.372 78.1173 27.156 78.1173 25.78ZM88.1493 25.804C88.1493 24.78 87.8613 23.972 87.2853 23.38C86.7253 22.788 86.0373 22.492 85.2213 22.492C84.4053 22.492 83.7093 22.788 83.1333 23.38C82.5733 23.956 82.2933 24.756 82.2933 25.78C82.2933 26.804 82.5733 27.62 83.1333 28.228C83.7093 28.82 84.4053 29.116 85.2213 29.116C86.0373 29.116 86.7253 28.82 87.2853 28.228C87.8613 27.636 88.1493 26.828 88.1493 25.804Z"
    fill="#233348" />
  <path
    d="M101.942 22.516H99.7344V32.5H95.6304V22.516H94.1424V19.108H95.6304V18.724C95.6304 17.076 96.1024 15.828 97.0464 14.98C97.9904 14.116 99.3744 13.684 101.198 13.684C101.502 13.684 101.726 13.692 101.87 13.708V17.188C101.086 17.14 100.534 17.252 100.214 17.524C99.8944 17.796 99.7344 18.284 99.7344 18.988V19.108H101.942V22.516Z"
    fill="#233348" />
  <path
    d="M103.055 25.78C103.055 24.404 103.311 23.196 103.823 22.156C104.351 21.116 105.063 20.316 105.959 19.756C106.855 19.196 107.855 18.916 108.959 18.916C109.903 18.916 110.727 19.108 111.431 19.492C112.151 19.876 112.703 20.38 113.087 21.004V19.108H117.191V32.5H113.087V30.604C112.687 31.228 112.127 31.732 111.407 32.116C110.703 32.5 109.879 32.692 108.935 32.692C107.847 32.692 106.855 32.412 105.959 31.852C105.063 31.276 104.351 30.468 103.823 29.428C103.311 28.372 103.055 27.156 103.055 25.78ZM113.087 25.804C113.087 24.78 112.799 23.972 112.223 23.38C111.663 22.788 110.975 22.492 110.159 22.492C109.343 22.492 108.647 22.788 108.071 23.38C107.511 23.956 107.231 24.756 107.231 25.78C107.231 26.804 107.511 27.62 108.071 28.228C108.647 28.82 109.343 29.116 110.159 29.116C110.975 29.116 111.663 28.82 112.223 28.228C112.799 27.636 113.087 26.828 113.087 25.804Z"
    fill="#233348" />
  <path d="M124.264 14.74V32.5H120.16V14.74H124.264Z" fill="#233348" />
  <path
    d="M132.326 18.916C133.27 18.916 134.094 19.108 134.798 19.492C135.518 19.876 136.07 20.38 136.454 21.004V19.108H140.558V32.476C140.558 33.708 140.31 34.82 139.814 35.812C139.334 36.82 138.59 37.62 137.582 38.212C136.59 38.804 135.35 39.1 133.862 39.1C131.878 39.1 130.27 38.628 129.038 37.684C127.806 36.756 127.102 35.492 126.926 33.892H130.982C131.11 34.404 131.414 34.804 131.894 35.092C132.374 35.396 132.966 35.548 133.67 35.548C134.518 35.548 135.19 35.3 135.686 34.804C136.198 34.324 136.454 33.548 136.454 32.476V30.58C136.054 31.204 135.502 31.716 134.798 32.116C134.094 32.5 133.27 32.692 132.326 32.692C131.222 32.692 130.222 32.412 129.326 31.852C128.43 31.276 127.718 30.468 127.19 29.428C126.678 28.372 126.422 27.156 126.422 25.78C126.422 24.404 126.678 23.196 127.19 22.156C127.718 21.116 128.43 20.316 129.326 19.756C130.222 19.196 131.222 18.916 132.326 18.916ZM136.454 25.804C136.454 24.78 136.166 23.972 135.59 23.38C135.03 22.788 134.342 22.492 133.526 22.492C132.71 22.492 132.014 22.788 131.438 23.38C130.878 23.956 130.598 24.756 130.598 25.78C130.598 26.804 130.878 27.62 131.438 28.228C132.014 28.82 132.71 29.116 133.526 29.116C134.342 29.116 135.03 28.82 135.59 28.228C136.166 27.636 136.454 26.828 136.454 25.804Z"
    fill="#233348" />
  <path
    d="M142.711 25.78C142.711 24.404 142.967 23.196 143.479 22.156C144.007 21.116 144.719 20.316 145.615 19.756C146.511 19.196 147.511 18.916 148.615 18.916C149.559 18.916 150.383 19.108 151.087 19.492C151.807 19.876 152.359 20.38 152.743 21.004V19.108H156.847V32.5H152.743V30.604C152.343 31.228 151.783 31.732 151.063 32.116C150.359 32.5 149.535 32.692 148.591 32.692C147.503 32.692 146.511 32.412 145.615 31.852C144.719 31.276 144.007 30.468 143.479 29.428C142.967 28.372 142.711 27.156 142.711 25.78ZM152.743 25.804C152.743 24.78 152.455 23.972 151.879 23.38C151.319 22.788 150.631 22.492 149.815 22.492C148.999 22.492 148.303 22.788 147.727 23.38C147.167 23.956 146.887 24.756 146.887 25.78C146.887 26.804 147.167 27.62 147.727 28.228C148.303 28.82 148.999 29.116 149.815 29.116C150.631 29.116 151.319 28.82 151.879 28.228C152.455 27.636 152.743 26.828 152.743 25.804Z"
    fill="#233348" />
  <path
    d="M163.92 21.34C164.4 20.604 165 20.028 165.72 19.612C166.44 19.18 167.24 18.964 168.12 18.964V23.308H166.992C165.968 23.308 165.2 23.532 164.688 23.98C164.176 24.412 163.92 25.18 163.92 26.284V32.5H159.816V19.108H163.92V21.34Z"
    fill="#233348" />
  <path
    d="M41 21C41 32.3218 31.8218 41.5 20.5 41.5C9.17816 41.5 0 32.3218 0 21C0 9.67816 9.17816 0.5 20.5 0.5C31.8218 0.5 41 9.67816 41 21Z"
    fill="#458FF6" />
  <path d="M27.742 16.248V19.81H22.906V34.5H18.46V19.81H13.624V16.248H27.742Z" fill="white" />
</svg>

<svg height="42" viewBox="0 0 169 42" fill="none" xmlns="http://www.w3.org/2000/svg"><path d="M66.608 15.652v3.288h-4.464V32.5H58.04V18.94h-4.464v-3.288h13.032zM72.772 21.34a5.3 5.3 0 011.8-1.728 4.576 4.576 0 012.4-.648v4.344h-1.128c-1.024 0-1.792.224-2.304.672-.512.432-.768 1.2-.768 2.304V32.5h-4.104V19.108h4.104v2.232zM78.117 25.78c0-1.376.256-2.584.768-3.624.528-1.04 1.24-1.84 2.136-2.4.896-.56 1.896-.84 3-.84.944 0 1.768.192 2.472.576.72.384 1.272.888 1.656 1.512v-1.896h4.104V32.5H88.15v-1.896c-.4.624-.96 1.128-1.68 1.512-.704.384-1.528.576-2.472.576-1.088 0-2.08-.28-2.976-.84-.896-.576-1.608-1.384-2.136-2.424-.512-1.056-.768-2.272-.768-3.648zm10.032.024c0-1.024-.288-1.832-.864-2.424a2.73 2.73 0 00-2.064-.888c-.816 0-1.512.296-2.088.888-.56.576-.84 1.376-.84 2.4s.28 1.84.84 2.448c.576.592 1.272.888 2.088.888a2.73 2.73 0 002.064-.888c.576-.592.864-1.4.864-2.424zM101.942 22.516h-2.208V32.5H95.63v-9.984h-1.488v-3.408h1.488v-.384c0-1.648.472-2.896 1.416-3.744.944-.864 2.328-1.296 4.152-1.296.304 0 .528.008.672.024v3.48c-.784-.048-1.336.064-1.656.336-.32.272-.48.76-.48 1.464v.12h2.208v3.408zM103.055 25.78c0-1.376.256-2.584.768-3.624.528-1.04 1.24-1.84 2.136-2.4.896-.56 1.896-.84 3-.84.944 0 1.768.192 2.472.576.72.384 1.272.888 1.656 1.512v-1.896h4.104V32.5h-4.104v-1.896c-.4.624-.96 1.128-1.68 1.512-.704.384-1.528.576-2.472.576-1.088 0-2.08-.28-2.976-.84-.896-.576-1.608-1.384-2.136-2.424-.512-1.056-.768-2.272-.768-3.648zm10.032.024c0-1.024-.288-1.832-.864-2.424a2.73 2.73 0 00-2.064-.888c-.816 0-1.512.296-2.088.888-.56.576-.84 1.376-.84 2.4s.28 1.84.84 2.448c.576.592 1.272.888 2.088.888a2.73 2.73 0 002.064-.888c.576-.592.864-1.4.864-2.424zM124.264 14.74V32.5h-4.104V14.74h4.104zM132.326 18.916c.944 0 1.768.192 2.472.576.72.384 1.272.888 1.656 1.512v-1.896h4.104v13.368c0 1.232-.248 2.344-.744 3.336-.48 1.008-1.224 1.808-2.232 2.4-.992.592-2.232.888-3.72.888-1.984 0-3.592-.472-4.824-1.416-1.232-.928-1.936-2.192-2.112-3.792h4.056c.128.512.432.912.912 1.2.48.304 1.072.456 1.776.456.848 0 1.52-.248 2.016-.744.512-.48.768-1.256.768-2.328V30.58c-.4.624-.952 1.136-1.656 1.536-.704.384-1.528.576-2.472.576-1.104 0-2.104-.28-3-.84-.896-.576-1.608-1.384-2.136-2.424-.512-1.056-.768-2.272-.768-3.648 0-1.376.256-2.584.768-3.624.528-1.04 1.24-1.84 2.136-2.4.896-.56 1.896-.84 3-.84zm4.128 6.888c0-1.024-.288-1.832-.864-2.424a2.73 2.73 0 00-2.064-.888c-.816 0-1.512.296-2.088.888-.56.576-.84 1.376-.84 2.4s.28 1.84.84 2.448c.576.592 1.272.888 2.088.888a2.73 2.73 0 002.064-.888c.576-.592.864-1.4.864-2.424zM142.711 25.78c0-1.376.256-2.584.768-3.624.528-1.04 1.24-1.84 2.136-2.4.896-.56 1.896-.84 3-.84.944 0 1.768.192 2.472.576.72.384 1.272.888 1.656 1.512v-1.896h4.104V32.5h-4.104v-1.896c-.4.624-.96 1.128-1.68 1.512-.704.384-1.528.576-2.472.576-1.088 0-2.08-.28-2.976-.84-.896-.576-1.608-1.384-2.136-2.424-.512-1.056-.768-2.272-.768-3.648zm10.032.024c0-1.024-.288-1.832-.864-2.424a2.73 2.73 0 00-2.064-.888c-.816 0-1.512.296-2.088.888-.56.576-.84 1.376-.84 2.4s.28 1.84.84 2.448c.576.592 1.272.888 2.088.888a2.73 2.73 0 002.064-.888c.576-.592.864-1.4.864-2.424zM163.92 21.34a5.3 5.3 0 011.8-1.728 4.576 4.576 0 012.4-.648v4.344h-1.128c-1.024 0-1.792.224-2.304.672-.512.432-.768 1.2-.768 2.304V32.5h-4.104V19.108h4.104v2.232z" fill="#233348"/><path d="M41 21c0 11.322-9.178 20.5-20.5 20.5S0 32.322 0 21 9.178.5 20.5.5 41 9.678 41 21z" fill="#458FF6"/><path d="M27.742 16.248v3.562h-4.836V34.5H18.46V19.81h-4.836v-3.562h14.118z" fill="#fff"/></svg>
